src/icons/svgs/24/bookmark.svg

<svg width="24" height="24" viewBox="0 0 24 24" fill="none" xmlns="http://www.w3.org/2000/svg">
<path d="M18 3H6C4.89542 3 4 3.79756 4 4.78144V20.8107C4 21.7274 5.11625 22.2982 6.005 21.8365L12 18.7212L17.9958 21.8361C18.8833 22.2655 20 21.7274 20 20.8107V4.78144C20 3.79756 19.1042 3 18 3ZM18 19.7752L12 16.6577L6 19.7752V5.00412C6 4.87905 6.10958 4.78144 6.2125 4.78144H17.7125C17.8917 4.78144 18 4.87905 18 5.00412V19.7752Z" fill="black"/>
</svg>

<svg width="24" height="24" viewBox="0 0 24 24" xmlns="http://www.w3.org/2000/svg">
    <path d="M18 3H6c-1.105 0-2 .798-2 1.781v16.03c0 .916 1.116 1.487 2.005 1.026L12 18.72l5.996 3.115c.887.43 2.004-.109 2.004-1.025V4.78C20 3.798 19.104 3 18 3Zm0 16.775-6-3.117-6 3.117V5.005c0-.126.11-.224.213-.224h11.5c.179 0 .287.098.287.223v14.771Z"/>
</svg>
